src/pos-icons/google-street-view.svg

<svg height="24" viewBox="0 0 24 24" width="24" xmlns="http://www.w3.org/2000/svg"><path d="m11.95 9.27c2.01 0 3.64-1.63 3.64-3.64 0-2-1.63-3.63-3.64-3.63s-3.63 1.63-3.63 3.63c0 2.01 1.62 3.64 3.63 3.64m-2.59 3.7s-1.09 2.97-1.4 3.53c-.11.21-.09.27-.36.27s-.69-.27-.69-.27-.2-.13-.12-.36c.24-.74 1.33-5.06 1.56-5.89.25-.89.93-.86.93-.86h.65l2.1 3.65 2.11-3.65h.78s.31.04.54.31c.24.27.29.74.29.74l1.39 5.4s.1.38.07.49c-.04.17-.13.17-.13.17s-.39.12-.61.19c-.4.13-.47-.25-.47-.25l-1.3-3.4-.15 8.96h-1.95l-.33-5.11s-.06-.13-.24-.13c-.17 0-.23.13-.23.13l-.35 5.11h-1.95l-.13-9.03z"/></svg>

<?xml version="1.0" encoding="UTF-8"?><!DOCTYPE svg PUBLIC "-//W3C//DTD SVG 1.1//EN" "http://www.w3.org/Graphics/SVG/1.1/DTD/svg11.dtd"><svg xmlns="http://www.w3.org/2000/svg" xmlns:xlink="http://www.w3.org/1999/xlink" version="1.1" id="mdi-google-street-view" width="24" height="24" viewBox="0 0 24 24"><path d="M11.95,9.27C13.96,9.27 15.59,7.64 15.59,5.63C15.59,3.63 13.96,2 11.95,2C9.94,2 8.32,3.63 8.32,5.63C8.32,7.64 9.94,9.27 11.95,9.27M9.36,12.97C9.36,12.97 8.27,15.94 7.96,16.5C7.85,16.71 7.87,16.77 7.6,16.77C7.33,16.77 6.91,16.5 6.91,16.5C6.91,16.5 6.71,16.37 6.79,16.14C7.03,15.4 8.12,11.08 8.35,10.25C8.6,9.36 9.28,9.39 9.28,9.39H9.93L12.03,13.04L14.14,9.39H14.92C14.92,9.39 15.23,9.43 15.46,9.7C15.7,9.97 15.75,10.44 15.75,10.44L17.14,15.84C17.14,15.84 17.24,16.22 17.21,16.33C17.17,16.5 17.08,16.5 17.08,16.5C17.08,16.5 16.69,16.62 16.47,16.69C16.07,16.82 16,16.44 16,16.44L14.7,13.04L14.55,22H12.6L12.27,16.89C12.27,16.89 12.21,16.76 12.03,16.76C11.86,16.76 11.8,16.89 11.8,16.89L11.45,22H9.5L9.37,12.97H9.36Z" /></svg>
